X: 13618
T: Foggy Dew, The
R: march
M: 
K: Gmajor
M:2/4
|:E/F/|GG/A/ Bg/f/|ed/B/ AG/A/|B/A/B/G/ E/G/F/A/|GG/F/ G:|
e/f/|gg/f/ ef/g/|a/g/f/e/ dB/d/|ee/f/ g/f/e/d/|ee/f/ eE/F/|
GG/A/ Bg/f/|ed/B/ AG/A/|B/A/B/G/ E/G/F/A/|GG/F/ G||

